svg/Pictogram/pictograms-aem-0128-arm_entanglement-broom_reel.svg

<svg viewBox="0 0 304.01 304.01"><g transform="matrix(1.35328 0 0 1.35328-53.21-52.19)" fill-rule="evenodd"><path d="m91.42 93.98l26.828 15.492c-3.23 1.992-6.328 4.195-9.273 6.594l3.062 3.922c3.504-2.852 7.231-5.418 11.152-7.672l17.14 9.898 56.34 3.625 6.03-2.269 13.539 1.16c.559.047.977.531.946 1.094l-.016.238c-.016.269-.137.527-.344.715-.203.187-.472.277-.75.261l-10.09-.57 6.868 11.238 6.668-1.8.96-2.25c.219-.528.829-.77 1.36-.551l.187.082c.254.109.453.308.555.57.102.254.098.539-.008.793l-1.394 3.274-7.731 2.086 11.199-.981c.274-.023.547.059.754.234.211.184.344.434.371.711l.02.207c.047.567-.375 1.071-.945 1.118l-10.973.964 8.02 4.536c.243.129.418.359.493.621.066.273.031.558-.102.797l-.105.175c-.286.493-.914.664-1.407.383l-20.625-11.648-14.738 2.508-.156-1.512-2.328 1.691c-.153-.062-.309-.125-.461-.183l-.5-2.84-2.207 1.851c-.157-.05-.313-.097-.469-.148l-.695-2.797-2.071 1.996c-.164-.035-.32-.074-.476-.117l-.895-2.742-1.926 2.144c-.164-.027-.324-.054-.488-.086l-1.082-2.664-1.769 2.266c-.164-.024-.328-.035-.489-.055l-1.265-2.59-1.61 2.391c-.164-.004-.328-.016-.492-.02l-1.441-2.492-1.442 2.492c-.164.004-.328.016-.496.02l-1.605-2.391-1.266 2.59c-.164.02-.328.031-.488.055l-1.774-2.266-1.082 2.664c-.16.032-.324.059-.484.086l-1.926-2.144-.89 2.742c-.161.043-.325.082-.481.117l-2.074-1.996-.695 2.797c-.157.051-.313.098-.469.148l-2.207-1.851-.5 2.84c-.152.058-.305.121-.457.183l-2.332-1.691-.301 2.863c-.145.07-.297.145-.445.215l-2.442-1.527-.097 2.878c-.145.086-.286.165-.43.25l-2.539-1.355.098 2.879c-.137.098-.274.184-.415.281l-2.628-1.176.3 2.864c-.125.101-.257.203-.382.304l-2.708-.988.497 2.84c-.094.082-.188.168-.282.254l-36.726-21.2-44.902 25.926v-41.485l30.945-17.863"/><path d="m251.06 184.44h-1.664c0-32.442-18.504-62.04-47.668-76.25-29.16-14.211-63.875-10.539-89.42 9.457l-1.024-1.309c26.05-20.383 61.44-24.13 91.18-9.644 29.738 14.488 48.605 44.664 48.605 77.74"/><path d="m203.38 187.21c.035-.496.058-.98.074-1.472h7.781c.024-.871.024-1.735 0-2.598h-7.781c-.016-.492-.039-.988-.074-1.477l7.734-.812c-.062-.863-.156-1.723-.269-2.578l-7.735.812c-.07-.488-.148-.976-.23-1.465l7.609-1.617c-.156-.847-.34-1.691-.539-2.539l-7.609 1.625c-.121-.48-.25-.961-.387-1.433l7.402-2.403c-.25-.828-.515-1.652-.804-2.465l-7.399 2.403c-.168-.461-.347-.926-.531-1.383l7.109-3.16c-.332-.801-.679-1.59-1.054-2.371l-7.11 3.168c-.215-.446-.441-.887-.668-1.317l6.735-3.894c-.41-.758-.84-1.508-1.293-2.239l-6.742 3.883c-.262-.418-.528-.828-.801-1.234l6.293-4.578c-.489-.711-.996-1.41-1.524-2.098l-6.297 4.57c-.3-.382-.613-.769-.933-1.144l5.785-5.207c-.559-.66-1.137-1.305-1.734-1.93l-5.782 5.207c-.343-.351-.691-.703-1.046-1.043l5.203-5.785c-.621-.594-1.266-1.172-1.922-1.738l-5.207 5.785c-.379-.313-.758-.625-1.149-.93l4.571-6.293c-.684-.527-1.383-1.035-2.098-1.523l-4.57 6.289c-.411-.274-.825-.543-1.243-.805l3.891-6.738c-.738-.445-1.484-.883-2.246-1.293l-3.891 6.738c-.437-.234-.875-.457-1.316-.672l3.168-7.109c-.785-.371-1.574-.727-2.371-1.055l-3.168 7.11c-.457-.184-.914-.36-1.375-.528l2.402-7.398c-.816-.297-1.64-.563-2.465-.801l-2.406 7.395c-.476-.137-.949-.258-1.43-.375l1.618-7.617c-.84-.204-1.688-.379-2.536-.54l-1.617 7.61c-.484-.082-.972-.164-1.461-.231l.813-7.734c-.86-.117-1.715-.207-2.578-.273l-.813 7.738c-.496-.039-.984-.063-1.476-.078v-7.778c-.864-.031-1.731-.031-2.594 0v7.778c-.492.015-.984.039-1.477.078l-.812-7.738c-.863.066-1.723.156-2.582.273l.812 7.734c-.484.067-.972.149-1.457.231l-1.617-7.61c-.855.161-1.703.336-2.539.54l1.621 7.617c-.476.117-.957.238-1.43.375l-2.402-7.395c-.832.238-1.652.504-2.469.801l2.407 7.398c-.469.168-.926.344-1.383.528l-3.168-7.11c-.797.328-1.586.684-2.364 1.055l3.165 7.109c-.446.215-.883.438-1.317.672l-3.894-6.738c-.758.41-1.508.848-2.246 1.293l3.89 6.738c-.418.262-.832.531-1.238.805l-4.57-6.289c-.719.488-1.414.996-2.102 1.523l4.574 6.293c-.39.305-.769.617-1.152.93l-5.203-5.785c-.66.566-1.301 1.144-1.93 1.738l5.207 5.785c-.351.34-.699.692-1.043 1.043l-5.781-5.207c-.598.625-1.176 1.27-1.738 1.93l5.785 5.207c-.321.375-.629.762-.934 1.144l-6.297-4.57c-.523.688-1.031 1.387-1.519 2.098l6.297 4.578c-.282.406-.547.816-.809 1.234l-6.742-3.883c-.449.731-.883 1.481-1.293 2.239l6.734 3.894c-.226.43-.449.871-.668 1.317l-7.109-3.168c-.371.781-.723 1.57-1.051 2.371l7.106 3.16c-.188.457-.364.922-.528 1.383l-7.406-2.403c-.289.813-.555 1.637-.797 2.465l7.399 2.403c-.133.472-.266.953-.383 1.433l-7.61-1.625c-.203.848-.382 1.692-.535 2.539l7.61 1.617c-.09.489-.164.977-.235 1.465l-7.738-.812c-.113.855-.203 1.715-.27 2.578l7.739.812c-.039.489-.063.985-.078 1.477h-7.782c-.023.863-.023 1.727 0 2.598h7.782c.015.492.039.976.078 1.472l-7.739.817c.067.855.157 1.718.27 2.574l7.738-.813c.071.489.145.977.235 1.461l-7.61 1.618c.153.847.332 1.691.535 2.539l7.61-1.621c.117.48.25.953.383 1.425l-7.399 2.407c.242.832.508 1.656.797 2.468l7.406-2.406c.164.465.34.922.528 1.379l-7.106 3.168c.328.797.68 1.586 1.051 2.368l7.109-3.161c.219.438.442.879.668 1.313l-6.734 3.891c.41.765.844 1.511 1.293 2.246l6.742-3.891c.262.422.527.832.809 1.242l-6.297 4.574c.488.711.996 1.411 1.519 2.098l6.297-4.578c.305.387.613.777.934 1.152l-5.785 5.207c.562.657 1.14 1.297 1.738 1.922l5.781-5.203c.344.356.692.707 1.043 1.047l-5.207 5.781c.629.598 1.27 1.176 1.93 1.735l5.203-5.782c.383.317.762.629 1.152.93l-4.574 6.293c.688.531 1.383 1.039 2.102 1.527l4.57-6.3c.406.281.82.55 1.238.808l-3.89 6.738c.738.457 1.488.887 2.246 1.301l3.894-6.742c.434.23.871.457 1.317.672l-3.165 7.105c.778.379 1.567.731 2.364 1.059l3.168-7.109c.457.191.914.363 1.383.527l-2.407 7.402c.817.289 1.637.559 2.469.805l2.402-7.402c.473.136.954.261 1.43.382l-1.621 7.61c.836.207 1.684.383 2.539.539l1.617-7.61c.485.086.973.165 1.457.231l-.812 7.738c.859.117 1.719.207 2.582.274l.812-7.739c.493.036.985.059 1.477.075v7.781c.863.027 1.73.027 2.594 0v-7.781c.492-.016.98-.039 1.476-.075l.813 7.739c.863-.067 1.718-.157 2.578-.274l-.813-7.738c.489-.066.977-.145 1.461-.231l1.617 7.61c.848-.156 1.696-.332 2.536-.539l-1.618-7.61c.481-.121.954-.246 1.43-.382l2.406 7.402c.825-.246 1.649-.516 2.465-.805l-2.402-7.402c.461-.164.918-.336 1.375-.527l3.168 7.109c.797-.328 1.586-.68 2.371-1.059l-3.168-7.105c.441-.215.879-.442 1.316-.672l3.891 6.742c.762-.414 1.508-.844 2.246-1.301l-3.891-6.738c.418-.258.832-.527 1.243-.808l4.57 6.3c.715-.488 1.414-.996 2.098-1.527l-4.571-6.293c.391-.301.77-.613 1.149-.93l5.207 5.782c.656-.559 1.301-1.137 1.922-1.735l-5.203-5.781c.355-.34.703-.691 1.046-1.047l5.782 5.203c.597-.625 1.175-1.265 1.734-1.922l-5.785-5.207c.32-.375.633-.765.933-1.152l6.297 4.578c.528-.687 1.035-1.387 1.524-2.098l-6.293-4.574c.273-.41.539-.82.801-1.242l6.742 3.891c.453-.735.883-1.481 1.293-2.246l-6.735-3.891c.227-.434.453-.875.668-1.313l7.11 3.161c.375-.782.722-1.571 1.054-2.368l-7.109-3.168c.184-.457.363-.914.531-1.379l7.399 2.406c.289-.812.554-1.636.804-2.468l-7.402-2.407c.137-.472.266-.945.387-1.425l7.609 1.621c.199-.848.383-1.692.539-2.539l-7.609-1.618c.082-.484.16-.972.23-1.461l7.739.813c.109-.856.203-1.719.265-2.574l-7.734-.817"/><path d="m103.78 213.04l-2.953 1.515 1.137-11.777 9.191 6.469-2.949 1.515c5.04 9.805 12 18.497 20.469 25.563l-3.188 3.824c-8.98-7.492-16.359-16.711-21.707-27.11"/><path d="m166.94 184.44c0-1.305-1.054-2.356-2.351-2.356-1.301 0-2.356 1.051-2.356 2.356 0 1.301 1.055 2.355 2.356 2.355 1.297 0 2.351-1.054 2.351-2.355"/><path d="m91.42 93.98c-3.082-1.781-6.875-1.781-9.957 0"/><path d="m117.21 68.64c0 1.195.969 2.164 2.164 2.164 1.195 0 2.164-.969 2.164-2.164 0-1.195-.969-2.164-2.164-2.164-1.195 0-2.164.969-2.164 2.164m-32.574-6.113c1.781-7.05 6.938-13.594 14.04-15.778l1.367-.457c1.672-.312 3.488-.402 5.34-.218l1.422.253h.004c6.695.926 13.218 5.618 16.777 12.579.453.886.832 1.824 1.129 2.812l.191.672 2.895 10.269 1.769 6.27c.059.211.184.738.133.969-.203.929-.621.902-1.512 1.125l-5.156.41-.672 9.437c-.277 3.868-3.637 6.782-7.504 6.504l-7.547-.554c-15.183-2.196-24.3-15.03-23.3-30.31l.621-3.98"/></g></svg>

<?xml version="1.0" encoding="ISO-8859-1" standalone="yes"?>
<svg height="304.011" width="304.014">
  <metadata>
    <rdf:RDF xmlns:cc="http://web.resource.org/cc/" xmlns:dc="http://purl.org/dc/elements/1.1/" xmlns:rdf="http://www.w3.org/1999/02/22-rdf-syntax-ns#">
      <cc:Work rdf:about="">
        <dc:title></dc:title>
        <dc:description></dc:description>
        <dc:subject>
          <rdf:Bag>
            <rdf:li></rdf:li>
          </rdf:Bag>
        </dc:subject>
        <dc:publisher>
          <cc:Agent rdf:about="http://www.unece.org/trans/danger/publi/ghs/pictograms.html">
            <dc:title>Source: UNECE GHS of Classification and Labeling of Chemicals, Source: AEM Pictorial Database, Source: AEM Pictorial Database, Source: AEM Pictorial Database, Source: AEM Pictorial Database</dc:title>
          </cc:Agent>
        </dc:publisher>
        <dc:creator>
          <cc:Agent>
            <dc:title></dc:title>
          </cc:Agent>
        </dc:creator>
        <dc:rights>
          <cc:Agent>
            <dc:title></dc:title>
          </cc:Agent>
        </dc:rights>
        <dc:date></dc:date>
        <dc:format>image/svg+xml</dc:format>
        <dc:type rdf:resource="http://purl.org/dc/dcmitype/StillImage"/>
        <cc:license rdf:resource="http://en.wikipedia.org/wiki/Public_domain"/>
        <dc:language>en</dc:language>
      </cc:Work>
    </rdf:RDF>
  </metadata>
  <defs><marker id="ArrowEnd" markerHeight="3" markerUnits="strokeWidth" markerWidth="4" orient="auto" refX="0" refY="5" viewBox="0 0 10 10"><path d="M 0 0 L 10 5 L 0 10 z"/></marker><marker id="ArrowStart" markerHeight="3" markerUnits="strokeWidth" markerWidth="4" orient="auto" refX="10" refY="5" viewBox="0 0 10 10"><path d="M 10 0 L 0 5 L 10 10 z"/></marker> </defs>
  <g id="g2958" transform="matrix(1.3532768,0,0,1.3532781,-53.207834,-52.192858)">
    <path d="M 91.4173 93.9804L 118.245 109.472C 115.015 111.464 111.917 113.667 108.972 116.066L 112.034 119.988C 115.538 117.136 119.265 114.57 123.186 112.316L 140.327 122.214L 196.663 125.839L 202.69 123.57L 216.229 124.73C 216.788 124.777 217.206 125.261 217.175 125.824L 217.159 126.062C 217.143 126.331 217.022 126.589 216.815 126.777C 216.612 126.964 216.343 127.054 216.065 127.038L 205.979 126.468L 212.847 137.706L 219.515 135.906L 220.475 133.656C 220.694 133.128 221.304 132.886 221.835 133.105L 222.022 133.187C 222.276 133.296 222.475 133.495 222.577 133.757C 222.679 134.011 222.675 134.296 222.569 134.55L 221.175 137.824L 213.444 139.91L 224.643 138.929C 224.917 138.906 225.19 138.988 225.397 139.163C 225.608 139.347 225.741 139.597 225.768 139.874L 225.788 140.081C 225.835 140.648 225.413 141.152 224.843 141.199L 213.87 142.163L 221.893 146.699C 222.136 146.828 222.311 147.058 222.386 147.32C 222.452 147.593 222.417 147.878 222.284 148.117L 222.179 148.292C 221.893 148.785 221.265 148.956 220.772 148.675L 200.147 137.027L 185.409 139.535L 185.253 138.023L 182.925 139.714C 182.772 139.652 182.616 139.589 182.464 139.531L 181.964 136.691L 179.757 138.542C 179.6 138.492 179.444 138.445 179.288 138.394L 178.593 135.597L 176.522 137.593C 176.358 137.558 176.202 137.519 176.046 137.476L 175.151 134.734L 173.225 136.878C 173.061 136.851 172.901 136.824 172.737 136.792L 171.655 134.128L 169.886 136.394C 169.722 136.37 169.558 136.359 169.397 136.339L 168.132 133.749L 166.522 136.14C 166.358 136.136 166.194 136.124 166.03 136.12L 164.589 133.628L 163.147 136.12C 162.983 136.124 162.819 136.136 162.651 136.14L 161.046 133.749L 159.78 136.339C 159.616 136.359 159.452 136.37 159.292 136.394L 157.518 134.128L 156.436 136.792C 156.276 136.824 156.112 136.851 155.952 136.878L 154.026 134.734L 153.136 137.476C 152.975 137.519 152.811 137.558 152.655 137.593L 150.581 135.597L 149.886 138.394C 149.729 138.445 149.573 138.492 149.417 138.542L 147.21 136.691L 146.71 139.531C 146.558 139.589 146.405 139.652 146.253 139.714L 143.921 138.023L 143.62 140.886C 143.475 140.956 143.323 141.031 143.175 141.101L 140.733 139.574L 140.636 142.452C 140.491 142.538 140.35 142.617 140.206 142.702L 137.667 141.347L 137.765 144.226C 137.628 144.324 137.491 144.41 137.35 144.507L 134.722 143.331L 135.022 146.195C 134.897 146.296 134.765 146.398 134.64 146.499L 131.932 145.511L 132.429 148.351C 132.335 148.433 132.241 148.519 132.147 148.605L 95.4212 127.402L 50.5188 153.328L 50.5188 111.843L 81.4642 93.9804" style="stroke:none; fill-rule:evenodd; fill:#000000"/>
    <path d="M 251.065 184.437L 249.401 184.437C 249.401 151.995 230.897 122.394 201.733 108.191C 172.569 93.9804 137.858 97.6524 112.308 117.648L 111.284 116.339C 137.335 95.9564 172.725 92.2104 202.46 106.695C 232.198 121.183 251.065 151.359 251.065 184.437" style="stroke:none; fill-rule:evenodd; fill:#000000"/>
    <path d="M 203.378 187.21C 203.413 186.714 203.436 186.23 203.452 185.738L 211.233 185.738C 211.257 184.867 211.257 184.003 211.233 183.14L 203.452 183.14C 203.436 182.648 203.413 182.152 203.378 181.663L 211.112 180.851C 211.05 179.988 210.956 179.128 210.843 178.273L 203.108 179.085C 203.038 178.597 202.96 178.109 202.878 177.62L 210.487 176.003C 210.331 175.156 210.147 174.312 209.948 173.464L 202.339 175.089C 202.218 174.609 202.089 174.128 201.952 173.656L 209.354 171.253C 209.104 170.425 208.839 169.601 208.55 168.788L 201.151 171.191C 200.983 170.73 200.804 170.265 200.62 169.808L 207.729 166.648C 207.397 165.847 207.05 165.058 206.675 164.277L 199.565 167.445C 199.35 166.999 199.124 166.558 198.897 166.128L 205.632 162.234C 205.222 161.476 204.792 160.726 204.339 159.995L 197.597 163.878C 197.335 163.46 197.069 163.05 196.796 162.644L 203.089 158.066C 202.6 157.355 202.093 156.656 201.565 155.968L 195.268 160.538C 194.968 160.156 194.655 159.769 194.335 159.394L 200.12 154.187C 199.561 153.527 198.983 152.882 198.386 152.257L 192.604 157.464C 192.261 157.113 191.913 156.761 191.558 156.421L 196.761 150.636C 196.14 150.042 195.495 149.464 194.839 148.898L 189.632 154.683C 189.253 154.37 188.874 154.058 188.483 153.753L 193.054 147.46C 192.37 146.933 191.671 146.425 190.956 145.937L 186.386 152.226C 185.975 151.952 185.561 151.683 185.143 151.421L 189.034 144.683C 188.296 144.238 187.55 143.8 186.788 143.39L 182.897 150.128C 182.46 149.894 182.022 149.671 181.581 149.456L 184.749 142.347C 183.964 141.976 183.175 141.62 182.378 141.292L 179.21 148.402C 178.753 148.218 178.296 148.042 177.835 147.874L 180.237 140.476C 179.421 140.179 178.597 139.913 177.772 139.675L 175.366 147.07C 174.89 146.933 174.417 146.812 173.936 146.695L 175.554 139.078C 174.714 138.874 173.866 138.699 173.018 138.538L 171.401 146.148C 170.917 146.066 170.429 145.984 169.94 145.917L 170.753 138.183C 169.893 138.066 169.038 137.976 168.175 137.91L 167.362 145.648C 166.866 145.609 166.378 145.585 165.886 145.57L 165.886 137.792C 165.022 137.761 164.155 137.761 163.292 137.792L 163.292 145.57C 162.8 145.585 162.308 145.609 161.815 145.648L 161.003 137.91C 160.14 137.976 159.28 138.066 158.421 138.183L 159.233 145.917C 158.749 145.984 158.261 146.066 157.776 146.148L 156.159 138.538C 155.304 138.699 154.456 138.874 153.62 139.078L 155.241 146.695C 154.765 146.812 154.284 146.933 153.811 147.07L 151.409 139.675C 150.577 139.913 149.757 140.179 148.94 140.476L 151.347 147.874C 150.878 148.042 150.421 148.218 149.964 148.402L 146.796 141.292C 145.999 141.62 145.21 141.976 144.432 142.347L 147.597 149.456C 147.151 149.671 146.714 149.894 146.28 150.128L 142.386 143.39C 141.628 143.8 140.878 144.238 140.14 144.683L 144.03 151.421C 143.612 151.683 143.198 151.952 142.792 152.226L 138.222 145.937C 137.503 146.425 136.808 146.933 136.12 147.46L 140.694 153.753C 140.304 154.058 139.925 154.37 139.542 154.683L 134.339 148.898C 133.679 149.464 133.038 150.042 132.409 150.636L 137.616 156.421C 137.265 156.761 136.917 157.113 136.573 157.464L 130.792 152.257C 130.194 152.882 129.616 153.527 129.054 154.187L 134.839 159.394C 134.518 159.769 134.21 160.156 133.905 160.538L 127.608 155.968C 127.085 156.656 126.577 157.355 126.089 158.066L 132.386 162.644C 132.104 163.05 131.839 163.46 131.577 163.878L 124.835 159.995C 124.386 160.726 123.952 161.476 123.542 162.234L 130.276 166.128C 130.05 166.558 129.827 166.999 129.608 167.445L 122.499 164.277C 122.128 165.058 121.776 165.847 121.448 166.648L 128.554 169.808C 128.366 170.265 128.19 170.73 128.026 171.191L 120.62 168.788C 120.331 169.601 120.065 170.425 119.823 171.253L 127.222 173.656C 127.089 174.128 126.956 174.609 126.839 175.089L 119.229 173.464C 119.026 174.312 118.847 175.156 118.694 176.003L 126.304 177.62C 126.214 178.109 126.14 178.597 126.069 179.085L 118.331 178.273C 118.218 179.128 118.128 179.988 118.061 180.851L 125.8 181.663C 125.761 182.152 125.737 182.648 125.722 183.14L 117.94 183.14C 117.917 184.003 117.917 184.867 117.94 185.738L 125.722 185.738C 125.737 186.23 125.761 186.714 125.8 187.21L 118.061 188.027C 118.128 188.882 118.218 189.745 118.331 190.601L 126.069 189.788C 126.14 190.277 126.214 190.765 126.304 191.249L 118.694 192.867C 118.847 193.714 119.026 194.558 119.229 195.406L 126.839 193.785C 126.956 194.265 127.089 194.738 127.222 195.21L 119.823 197.617C 120.065 198.449 120.331 199.273 120.62 200.085L 128.026 197.679C 128.19 198.144 128.366 198.601 128.554 199.058L 121.448 202.226C 121.776 203.023 122.128 203.812 122.499 204.594L 129.608 201.433C 129.827 201.871 130.05 202.312 130.276 202.746L 123.542 206.637C 123.952 207.402 124.386 208.148 124.835 208.883L 131.577 204.992C 131.839 205.414 132.104 205.824 132.386 206.234L 126.089 210.808C 126.577 211.519 127.085 212.219 127.608 212.906L 133.905 208.328C 134.21 208.715 134.518 209.105 134.839 209.48L 129.054 214.687C 129.616 215.344 130.194 215.984 130.792 216.609L 136.573 211.406C 136.917 211.762 137.265 212.113 137.616 212.453L 132.409 218.234C 133.038 218.832 133.679 219.41 134.339 219.969L 139.542 214.187C 139.925 214.504 140.304 214.816 140.694 215.117L 136.12 221.41C 136.808 221.941 137.503 222.449 138.222 222.937L 142.792 216.637C 143.198 216.918 143.612 217.187 144.03 217.445L 140.14 224.183C 140.878 224.64 141.628 225.07 142.386 225.484L 146.28 218.742C 146.714 218.972 147.151 219.199 147.597 219.414L 144.432 226.519C 145.21 226.898 145.999 227.25 146.796 227.578L 149.964 220.469C 150.421 220.66 150.878 220.832 151.347 220.996L 148.94 228.398C 149.757 228.687 150.577 228.957 151.409 229.203L 153.811 221.801C 154.284 221.937 154.765 222.062 155.241 222.183L 153.62 229.793C 154.456 230 155.304 230.176 156.159 230.332L 157.776 222.722C 158.261 222.808 158.749 222.887 159.233 222.953L 158.421 230.691C 159.28 230.808 160.14 230.898 161.003 230.965L 161.815 223.226C 162.308 223.262 162.8 223.285 163.292 223.301L 163.292 231.082C 164.155 231.109 165.022 231.109 165.886 231.082L 165.886 223.301C 166.378 223.285 166.866 223.262 167.362 223.226L 168.175 230.965C 169.038 230.898 169.893 230.808 170.753 230.691L 169.94 222.953C 170.429 222.887 170.917 222.808 171.401 222.722L 173.018 230.332C 173.866 230.176 174.714 230 175.554 229.793L 173.936 222.183C 174.417 222.062 174.89 221.937 175.366 221.801L 177.772 229.203C 178.597 228.957 179.421 228.687 180.237 228.398L 177.835 220.996C 178.296 220.832 178.753 220.66 179.21 220.469L 182.378 227.578C 183.175 227.25 183.964 226.898 184.749 226.519L 181.581 219.414C 182.022 219.199 182.46 218.972 182.897 218.742L 186.788 225.484C 187.55 225.07 188.296 224.64 189.034 224.183L 185.143 217.445C 185.561 217.187 185.975 216.918 186.386 216.637L 190.956 222.937C 191.671 222.449 192.37 221.941 193.054 221.41L 188.483 215.117C 188.874 214.816 189.253 214.504 189.632 214.187L 194.839 219.969C 195.495 219.41 196.14 218.832 196.761 218.234L 191.558 212.453C 191.913 212.113 192.261 211.762 192.604 211.406L 198.386 216.609C 198.983 215.984 199.561 215.344 200.12 214.687L 194.335 209.48C 194.655 209.105 194.968 208.715 195.268 208.328L 201.565 212.906C 202.093 212.219 202.6 211.519 203.089 210.808L 196.796 206.234C 197.069 205.824 197.335 205.414 197.597 204.992L 204.339 208.883C 204.792 208.148 205.222 207.402 205.632 206.637L 198.897 202.746C 199.124 202.312 199.35 201.871 199.565 201.433L 206.675 204.594C 207.05 203.812 207.397 203.023 207.729 202.226L 200.62 199.058C 200.804 198.601 200.983 198.144 201.151 197.679L 208.55 200.085C 208.839 199.273 209.104 198.449 209.354 197.617L 201.952 195.21C 202.089 194.738 202.218 194.265 202.339 193.785L 209.948 195.406C 210.147 194.558 210.331 193.714 210.487 192.867L 202.878 191.249C 202.96 190.765 203.038 190.277 203.108 189.788L 210.847 190.601C 210.956 189.745 211.05 188.882 211.112 188.027L 203.378 187.21" style="stroke:none; fill-rule:evenodd; fill:#000000"/>
    <path d="M 103.784 213.043L 100.831 214.558L 101.968 202.781L 111.159 209.25L 108.21 210.765C 113.253 220.57 120.214 229.262 128.679 236.328L 125.491 240.152C 116.511 232.66 109.132 223.441 103.784 213.043" style="stroke:none; fill-rule:evenodd; fill:#000000"/>
    <path d="M 166.94 184.437C 166.94 183.132 165.886 182.081 164.589 182.081C 163.288 182.081 162.233 183.132 162.233 184.437C 162.233 185.738 163.288 186.792 164.589 186.792C 165.886 186.792 166.94 185.738 166.94 184.437" style="stroke:none; fill-rule:evenodd; fill:#000000"/>
    <path d="M 91.4173 93.9804C 88.3352 92.1994 84.5423 92.1994 81.4602 93.9804" style="stroke:none; fill-rule:evenodd; fill:#000000"/>
    <path d="M 117.21 68.6444C 117.21 69.8394 118.179 70.8084 119.374 70.8084C 120.569 70.8084 121.538 69.8394 121.538 68.6444C 121.538 67.4494 120.569 66.4804 119.374 66.4804C 118.179 66.4804 117.21 67.4494 117.21 68.6444zM 84.636 62.5314C 86.4173 55.4844 91.5735 48.9374 98.6751 46.7534L 100.042 46.2964C 101.714 45.9844 103.53 45.8944 105.382 46.0784L 106.804 46.3314L 106.808 46.3314C 113.503 47.2574 120.026 51.9494 123.585 58.9104C 124.038 59.7964 124.417 60.7344 124.714 61.7224L 124.905 62.3944L 127.8 72.6634L 129.569 78.9334C 129.628 79.1444 129.753 79.6714 129.702 79.9024C 129.499 80.8314 129.081 80.8044 128.19 81.0274L 123.034 81.4374L 122.362 90.8744C 122.085 94.7424 118.725 97.6564 114.858 97.3784L 107.311 96.8244C 92.1282 94.6284 83.011 81.7964 84.011 66.5114L 84.6321 62.5314" style="stroke:none; fill-rule:evenodd; fill:#000000"/>
    <path d="M 29.6204 265.39L 2.62042 265.39" style="stroke:#000000; stroke-width:0.5; fill:none"/>
    <path d="M 38.6204 274.39L 38.6204 301.39" style="stroke:#000000; stroke-width:0.5; fill:none"/>
    <path d="M 29.6204 38.6204L 2.62042 38.6204" style="stroke:#000000; stroke-width:0.5; fill:none"/>
    <path d="M 38.6204 29.6204L 38.6204 2.62042" style="stroke:#000000; stroke-width:0.5; fill:none"/>
    <path d="M 274.393 38.6204L 301.393 38.6204" style="stroke:#000000; stroke-width:0.5; fill:none"/>
    <path d="M 265.393 29.6204L 265.393 2.62042" style="stroke:#000000; stroke-width:0.5; fill:none"/>
    <path d="M 274.393 265.39L 301.393 265.39" style="stroke:#000000; stroke-width:0.5; fill:none"/>
    <path d="M 265.393 274.39L 265.393 301.39" style="stroke:#000000; stroke-width:0.5; fill:none"/>
  </g>
</svg>
